!!!OTL: Ein alter Roman in brei Liedern. Phidile.
!!!OTL-incipit: ICH WAR ERST SECHZEHN SOMMER ALT
!!!COM: J. Ab. P. Schulz
!!!ARE: Europa, Mitteleuropa, Deutschland
!!!SCT: F0950
!!!TXL: @@DE
!!!YEM: Copyright 1995, estate of Helmut Schaffrath.
**kern	**text
*ICvox	*
*clefG2	*
*M6/8	*
*k[b-e-]	*
*B-:	*
!LO:TX:a:t=Andantino.	!
{8ff	1._Jch
=1	=1
4ff	war
8ff	erſt
8ffL	ſechʒehn
8ggJ	.
8ee-	.
=2	=2
4dd	Sommer
8dd	.
4dd}	alt,
{8ff	un-
=3	=3
4ee-	-ſchul-
8cc	-dig
8ddL	und
8eenJ	.
8ff	nichts
=4	=4
4.cc/	wei-
4cc/}	-ter,
{8ff/	und
=5	=5
4b-/	kann-
8b-/	-te
4ee-/	nichts
8dd/	als
=6	=6
8cc/L	unſern
8ddJ	.
8ee-/	.
4dd/}	Wald,
{8ff	als
=7	=7
8ffL	Blumen,
8ddJ	.
8b-/	.
8ee-L	Gras
8ccJ	.
8a	und
=8	=8
4.b-/	Kräuter.
8b-/	.
8r}	.
==	==
!!!AGN: Liebes - Lied
!!!ONB: ESAC (Essen Associative Code) Database: FINK
!!!AMT: compound duple
!!!AIN: vox
!!!EED: Helmut Schaffrath
!!!EEV: 1.0
!!Text: M. Claudius
!!!GTL: Minnelieder
!!!source: Musikalischer Hausschatz der Deutschen. Eine Sammlung von über 1000 Liedern und Gesängen mit Singstimmen und Klavierbegleitung. Leipzig, Litterarisches Verlags-Haus.
!!!page: 708
!!!URL-scan: https://www.digitale-sammlungen.de/en/view/bsb11144622?page=618
!!!ENC: Anna Maria Matuszewska
!!!EEV: 2024/08/08
*-	*-